editor/icons/PackedStringArray.svg

<svg height="12" viewBox="0 0 16 12" width="16" xmlns="http://www.w3.org/2000/svg"><path d="m0 0v12h4v-2h-2v-8h2v-2zm12 0v2h2v8h-2v2h4v-12z" fill="#e0e0e0"/><path d="m7 2a3 3 0 0 0 -3 3v2a1 1 0 0 1 -1 1h-1v2h1a3 3 0 0 0 3-3v-2a1 1 0 0 1 1-1h1v3a3 3 0 0 0 3 3h2v-3a1 1 0 0 1 1-1v-2a3 3 0 0 0 -3 3v1a1 1 0 0 1 -1-1v-1h1v-2h-1v-2h-2z" fill="#4593ec"/><path d="m8 2v5a3 3 0 0 0 3 3v-2a1 1 0 0 1 -1-1v-1h1v-2h-1v-2z" fill="#fff" fill-opacity=".39216"/></svg>

<svg height="12" viewBox="0 0 16 12" width="16" xmlns="http://www.w3.org/2000/svg"><path d="M0 0v12h4v-2H2V2h2V0zm12 0v2h2v8h-2v2h4V0z" fill="#e0e0e0"/><path d="M5 2a2.5 2.5 0 0 0 0 5 .5.5 0 0 1 0 1H2v2h3a2.5 2.5 0 0 0 0-5 .5.5 0 0 1 0-1h3v3a3 3 0 0 0 3 3h2V7a1 1 0 0 1 1-1V4a3 3 0 0 0-3 3v1a1 1 0 0 1-1-1V6h1V4h-1V2z" fill="#4593ec"/><path d="M8 2v5a3 3 0 0 0 3 3V8a1 1 0 0 1-1-1V6h1V4h-1V2z" fill="#fff" fill-opacity=".4"/></svg>
